X: 2895
T: Barney Brannigan
R: slip jig
M: 9/8
K: Dmajor
F2A ABA ABA|F2A ABA Bcd|F2A ABA ABA|BGB .e2d cBA|
F2A ABA ABA|F2A ABA Bcd|F2A ABA ABA|BGB .e2d cBA||
.f2a f2a fed|.f2a f2a gfe|.f2a f2a fed|g2f e2d cBA|
.f2a f2a fed|.f2a f2a gfe|.f2a f2a fed|g2f e2d cBA||
.f3 .a3 d2f|g2f e2d cBA|f2a e2f d2B|A2B A2G FED|
.f3 .a3 d2f|g2f e2d cBA|f2a e2f d2B|A2B A2G FED||

